src/helpers/heroicons/solid/folder.svg

<svg width="24" height="24" viewBox="0 0 24 24" fill="none" xmlns="http://www.w3.org/2000/svg">
<path d="M19.5 21C21.1569 21 22.5 19.6569 22.5 18V13.5C22.5 11.8431 21.1569 10.5 19.5 10.5H4.5C2.84315 10.5 1.5 11.8431 1.5 13.5V18C1.5 19.6569 2.84315 21 4.5 21H19.5Z" />
<path d="M1.5 10.1458V6C1.5 4.34315 2.84315 3 4.5 3H9.87868C10.4754 3 11.0477 3.23705 11.4697 3.65901L13.591 5.78033C13.7316 5.92098 13.9224 6 14.1213 6H19.5C21.1569 6 22.5 7.34315 22.5 9V10.1458C21.7039 9.43328 20.6525 9 19.5 9H4.5C3.34747 9 2.29613 9.43328 1.5 10.1458Z" />
</svg>

<svg xmlns="http://www.w3.org/2000/svg" viewBox="0 0 24 24" fill="currentColor" aria-hidden="true" data-slot="icon">
  <path d="M19.5 21a3 3 0 0 0 3-3v-4.5a3 3 0 0 0-3-3h-15a3 3 0 0 0-3 3V18a3 3 0 0 0 3 3h15ZM1.5 10.146V6a3 3 0 0 1 3-3h5.379a2.25 2.25 0 0 1 1.59.659l2.122 2.121c.14.141.331.22.53.22H19.5a3 3 0 0 1 3 3v1.146A4.483 4.483 0 0 0 19.5 9h-15a4.483 4.483 0 0 0-3 1.146Z"/>
</svg>
